images/DHT.svg

<svg height="250" viewBox="0 0 250 250" width="250" xmlns="http://www.w3.org/2000/svg"><path d="m124.363281 0h1.273438c68.597656 0 124.207031 55.964844 124.207031 124.996094v.007812c0 69.03125-55.609375 124.996094-124.207031 124.996094h-1.273438c-68.597656 0-124.207031-55.964844-124.207031-124.996094v-.007812c0-69.03125 55.609375-124.996094 124.207031-124.996094zm0 0" fill="#0e0e0f"/><g fill="#00a0d0"><path d="m189.324219 186.652344-28.09375-14.902344v-85.726562l28.09375 13.503906zm0 0"/><path d="m57.609375 198.125 28.167969-12.820312v-73.371094l-28.167969 13.496094zm0 0"/><path d="m109.082031 175.699219 28.859375-11.632813v-136.191406l-28.859375 12.824219zm0 0"/></g></svg>

<svg xmlns="http://www.w3.org/2000/svg" xmlns:xlink="http://www.w3.org/1999/xlink" width="250px" height="250px" viewBox="0 0 250 250" version="1.1">
<g id="surface1">
<path style=" stroke:none;fill-rule:nonzero;fill:rgb(5.490196%,5.490196%,5.882353%);fill-opacity:1;" d="M 124.363281 0 L 125.636719 0 C 194.234375 0 249.84375 55.964844 249.84375 124.996094 L 249.84375 125.003906 C 249.84375 194.035156 194.234375 250 125.636719 250 L 124.363281 250 C 55.765625 250 0.15625 194.035156 0.15625 125.003906 L 0.15625 124.996094 C 0.15625 55.964844 55.765625 0 124.363281 0 Z M 124.363281 0 "/>
<path style=" stroke:none;fill-rule:nonzero;fill:rgb(0%,62.7451%,81.568629%);fill-opacity:1;" d="M 189.324219 186.652344 L 161.230469 171.75 L 161.230469 86.023438 L 189.324219 99.527344 Z M 189.324219 186.652344 "/>
<path style=" stroke:none;fill-rule:nonzero;fill:rgb(0%,62.7451%,81.568629%);fill-opacity:1;" d="M 57.609375 198.125 L 85.777344 185.304688 L 85.777344 111.933594 L 57.609375 125.429688 Z M 57.609375 198.125 "/>
<path style=" stroke:none;fill-rule:nonzero;fill:rgb(0%,62.7451%,81.568629%);fill-opacity:1;" d="M 109.082031 175.699219 L 137.941406 164.066406 L 137.941406 27.875 L 109.082031 40.699219 Z M 109.082031 175.699219 "/>
</g>
</svg>
